X: 19133
T: Irish Washerwoman, The
R: jig
M: 6/8
K: Dmajor
|:FDD ADD|FDF AGF|GEE BEE|GEG BAG|
FDD ADD|FDF AGF|GFG EAG|FDD D3:|
|:dAd dAd|dAd fed|cAc cAc|cAc edc|
Bdd Add|Gdd F2F|GFG EAG|1 FDD D2A:|2 FDD D2E||

